X: 14397
T: Galway Bay
R: hornpipe
M: 4/4
K: Eminor
EF|:G3 A BABd|e3d efge|dBge dBAB|GFED EDBD|
E3F GFGE|D3E FEDB|EFGA BA (3FGA|G2 E2 E2 z2:|
|:edBd efgf|edBc BGEF|G3 A B3 c|dABG FDAF|
GDBG FDAF|GDBG FDcA|Bdef gfed|B2 e2 e4:|

